X: 36137
T: Scotch Cap
R: jig
M: 6/8
K: Ddorian
|:D2 D d2 d|edc A3|B2d BAG|1 B3 d3:|2 B3 dde||
f2A Ade|f2A Ade|fef A2G|F3 A2c|
B2 B A2 F|G2 G d3|BcB A2F|E3 D3||

